packages/app/src/assets/menu.svg

<svg width="36" height="36" viewBox="0 0 36 36" fill="currentColor" xmlns="http://www.w3.org/2000/svg" focusable="false">
	<path d="M28.852 7.82605H7.14797V11.896H26.818L28.852 7.82605ZM7.14797 20.035H26.818L28.852 15.965H7.14797V20.035ZM26.817 28.174H7.14697V24.104H28.852L26.817 28.174Z" fill="currentColor" />
</svg>

<svg focusable="false" width="36" height="36" viewBox="0 0 36 36" fill="none" xmlns="http://www.w3.org/2000/svg"><path d="M0 0h36v36H0z"/><path d="M28.852 7.826H7.148v4.07h19.67l2.034-4.07zM7.148 20.035h19.67l2.034-4.07H7.148v4.07zM26.817 28.174H7.147v-4.07h21.705l-2.035 4.07z" fill="currentColor"/></svg>
